dist/images/vacuum.svg

<svg xmlns="http://www.w3.org/2000/svg" viewBox="0 0 512 512"><style>.st0{fill:#312a91}.st4{fill:#3a1f5d}.st5{fill:#c83660}</style><g id="bottom"><g id="vaccum_1_"><path class="st0" d="M466.4 341.9v-33.4h-86.2l-101.8-58.8c-13.6-7.9-37.3-6.9-53 2.2l-98.1 56.6H41v35.3h.1c-.4 5.4 2.6 10.5 9.1 14.2l178.9 103.3c13.6 7.9 37.3 6.9 53-2.2l171.3-98.9c9.1-5.2 13.5-12 13-18.3z"/><linearGradient id="SVGID_1_" gradientUnits="userSpaceOnUse" x1="-53.027" y1="156.399" x2="372.441" y2="156.399" gradientTransform="matrix(1 0 0 -1 0 512)"><stop offset="0" stop-color="#c83660"/><stop offset=".107" stop-color="#b43360"/><stop offset=".404" stop-color="#802a5e"/><stop offset=".663" stop-color="#5a245e"/><stop offset=".87" stop-color="#43205d"/><stop offset="1" stop-color="#3a1f5d"/></linearGradient><path d="M466.4 341.9v-33.4h-86.2l-101.8-58.8c-13.6-7.9-37.3-6.9-53 2.2l-98.1 56.6H41v35.3h.1c-.4 5.4 2.6 10.5 9.1 14.2l178.9 103.3c13.6 7.9 37.3 6.9 53-2.2l171.3-98.9c9.1-5.2 13.5-12 13-18.3z" opacity=".5" fill="url(#SVGID_1_)"/><linearGradient id="SVGID_2_" gradientUnits="userSpaceOnUse" x1="253.795" y1="156.474" x2="466.549" y2="156.474" gradientTransform="matrix(1 0 0 -1 0 512)"><stop offset="0" stop-color="#3a1f5d"/><stop offset="1" stop-color="#3a1f5d"/></linearGradient><path d="M278.4 249.7c-6.5-3.7-15.5-5.5-24.6-5.2v222.1c10-.2 20.3-2.7 28.4-7.5l171.3-98.9c9.1-5.2 13.5-12 13-18.3v-33.4h-86.2l-101.9-58.8z" fill="url(#SVGID_2_)"/><path class="st0" d="M229.1 426L50.2 322.7c-13.6-7.9-11.9-21.6 3.9-30.6l171.3-98.9c15.7-9.1 39.4-10.1 53-2.2l178.9 103.3c13.6 7.9 11.9 21.6-3.9 30.6l-171.3 98.9c-15.7 9.1-39.4 10.1-53 2.2z"/><linearGradient id="SVGID_3_" gradientUnits="userSpaceOnUse" x1="41.026" y1="203.496" x2="466.439" y2="203.496" gradientTransform="matrix(1 0 0 -1 0 512)"><stop offset="0" stop-color="#c83660"/><stop offset=".107" stop-color="#b43360"/><stop offset=".404" stop-color="#802a5e"/><stop offset=".663" stop-color="#5a245e"/><stop offset=".87" stop-color="#43205d"/><stop offset="1" stop-color="#3a1f5d"/></linearGradient><path d="M229.1 426L50.2 322.7c-13.6-7.9-11.9-21.6 3.9-30.6l171.3-98.9c15.7-9.1 39.4-10.1 53-2.2l178.9 103.3c13.6 7.9 11.9 21.6-3.9 30.6l-171.3 98.9c-15.7 9.1-39.4 10.1-53 2.2z" opacity=".5" fill="url(#SVGID_3_)"/><path class="st4" d="M233.8 403.2L89.7 320c-11-6.4-9.6-17.3 3.1-24.7l138-79.7c12.6-7.4 31.8-8.1 42.8-1.7L417.7 297c11 6.4 9.6 17.3-3.1 24.7l-138 79.7c-12.7 7.3-31.8 8.2-42.8 1.8z"/><path class="st5" d="M92.7 306.1l138.1-79.7c12.6-7.4 31.8-8.1 42.8-1.7l144.1 83.2c2.7 1.6 4.6 3.4 5.9 5.4 3.1-5.9 1.4-12.1-5.9-16.2l-144.2-83.2c-11-6.4-30.1-5.5-42.8 1.7l-138 79.7c-9.5 5.5-12.6 13.1-9 19.2 1.8-3 4.8-5.9 9-8.4z"/><linearGradient id="SVGID_4_" gradientUnits="userSpaceOnUse" x1="102.701" y1="82.319" x2="407.131" y2="281.302" gradientTransform="matrix(1 0 0 -1 0 512)"><stop offset="0" stop-color="#c83660"/><stop offset="1" stop-color="#c83660"/></linearGradient><path d="M453.4 339.8l-171.3 98.9c-15.7 9.1-39.4 10.1-53 2.2L50.2 337.6c-6.5-3.7-9.5-8.9-9.1-14.2H41v7.4h.1c-.4 5.4 2.6 10.5 9.1 14.2l178.9 103.3c13.6 7.9 37.3 6.9 53-2.2l171.3-98.9c9.1-5.2 13.5-12 13-18.3v-7.4c.5 6.3-3.9 13.1-13 18.3z" opacity=".8" fill="url(#SVGID_4_)"/></g></g><g id="layers"><path class="st5" d="M351.2 329.3l-72 41.5c-2.4 1.4-5.4 1.4-7.8 0l-103-59.5c-5.2-3-5.2-10.5 0-13.5l72-41.5c2.4-1.4 5.4-1.4 7.8 0l103 59.5c5.2 3.1 5.2 10.5 0 13.5z"/><path d="M291.9 298.2l-7.5 4.3-1-.6 7.5-4.3 1 .6zm.2 3.3l-8.3 4.8 1 .6 8.3-4.8-1-.6zm-1.3 5.4l-6.5 3.8 1 .6 6.5-3.8-1-.6zm-18.2 2.4l10.7-6.2-1-.6-10.7 6.2 1 .6zm10.2-2.4l-5.6 3.2 1 .6 5.6-3.2-1-.6zm-24 10.4l12.8-7.4-1-.6-12.8 7.4 1 .6zm17.4-6.6l-12.7 7.3 1 .6 12.7-7.3-1-.6zm7.1.5l-7.1 4.1 1 .6 7.1-4.1-1-.6zm-12.7-5.4l12.9-7.5-1-.6-12.9 7.5 1 .6zm16.8-10.8l-3.9 2.2 1 .6 3.9-2.2-1-.6zm-4.8 22.8l-5.7 3.3 1 .6 5.7-3.3-1-.6zm25.3-10l-8.2 4.7 1 .6 8.2-4.7-1-.6zm-3.2-2.8l-7.1 4.1 1 .6 7.1-4.1-1-.6zM292 317l-10.7 6.2 1 .6 10.7-6.2-1-.6zm-10.5 11.8l5.7-3.3-1-.6-5.7 3.3 1 .6zm17.2-15.7l-5.7 3.3 1 .6 5.7-3.3-1-.6zm1.5 3.8l-12.9 7.5 1 .6 12.9-7.5-1-.6zm-3.7-7.2l-12.9 7.5 1 .6 12.9-7.5-1-.6zm-28-3.9l-5.7 3.3 1 .6 5.7-3.3-1-.6zm8.3 16.5l-1-.6-7.1 4.1 1 .6 7.1-4.1zm-1.6-6.4l-16.4 9.5 1 .6 16.4-9.5-1-.6zm-12.7 2.7l-16.2 9.4 1 .6 16.2-9.4-1-.6zm-3.8 8l-1-.6-3.3 1.9 1 .6 3.3-1.9zm34.5 10.7l-16.4 9.5 1 .6 16.4-9.5-1-.6zm4.1 3.4l-1-.6-12.7 7.3 1 .6 12.7-7.3zm-43.9-12.2l-14.6 8.4 1 .6 14.6-8.4-1-.6zm13.1 24.2l1 .6 9.3-5.4-1-.6-9.3 5.4zm5 3l12.2-7-1-.6-12.2 7 1 .6zm-39.6-22.9l12.2-7-1-.6-12.2 7 1 .6zm19.4 4.3l-1-.6-6 3.5 1 .6 6-3.5zm6.5-19.2l-1-.6-12.7 7.3 1 .6 12.7-7.3zm-21.9 17.2l10.4-6-1-.6-10.4 6 1 .6zm19.8-20.7l7.1-4.1-1-.6-7.1 4.1 1 .6zm-27.8 16.1l9.3-5.4-1-.6-9.3 5.4 1 .6zm10.3-6l16.4-9.5-1-.6-16.4 9.5 1 .6zm33.2 9l-19.3 11.1 1 .6 19.3-11.1-1-.6zm41.7-24.1l-11.9 6.9 1 .6 11.9-6.9-1-.6zm-.9 22.7l10.7-6.2-1-.6-10.7 6.2 1 .6zm11.7-6.7l7.5-4.3-1-.6-7.5 4.3 1 .6zm.2-4.8l3.9-2.2-1-.6-3.9 2.2 1 .6zm-49.6 15.8L256.1 347l1 .6 18.3-10.6-.9-.6zm48.1-19.5l4.9-2.8-1-.6-4.9 2.8 1 .6zm-34.4 18.7l-25.9 15 1 .6 25.9-15-1-.6zM275.4 358l10.4-6-1-.6-10.4 6 1 .6zm11.5-6.6l16.2-9.4-1-.6-16.2 9.4 1 .6zm17.2-10l12.7-7.3-1-.6-12.7 7.3 1 .6zm13.7-7.9l5.6-3.2-1-.6-5.6 3.2 1 .6zm-37.6-9.7l-12.8 7.4 1 .6 12.8-7.4-1-.6zm30 8.3l-12.8 7.4 1 .6 12.8-7.4-1-.6zm-2.1-3.4l-5.7 3.3 1 .6 5.7-3.3-1-.6zm-5.7 4.5l-1-.6-7.1 4.1 1 .6 7.1-4.1zm19.7-12.6l-12.9 7.5 1 .6 12.9-7.5-1-.6zm-8.3.2l-10.7 6.2 1 .6 10.7-6.2-1-.6zm-25.5 7.6l-12.8 7.4 1 .6 12.8-7.4-1-.6zm32.3-11.5l-5.7 3.3 1 .6 5.7-3.3-1-.6zm-52.9 9.5l-16.4 9.5 1 .6 16.4-9.5-1-.6zm34.4 1.2l-12.8 7.4 1 .6 12.8-7.4-1-.6zm-35.7 4.2l-18.2 10.5 1 .6 18.2-10.5-1-.6zm14.1-2.4l-1-.6-7.1 4.1 1 .6 7.1-4.1z" fill="#fff"/></g><g id="top"><g id="vaccum_2_"><path class="st0" d="M465.9 201.4V168h-86.2l-101.8-58.8c-13.6-7.9-37.3-6.9-53 2.2L126.8 168H40.5v35.3h.1c-.4 5.4 2.6 10.5 9.1 14.2l178.9 103.3c13.6 7.9 37.3 6.9 53-2.2l171.3-98.9c9.1-5.2 13.5-12.1 13-18.3z"/><linearGradient id="SVGID_5_" gradientUnits="userSpaceOnUse" x1="-53.498" y1="296.937" x2="371.971" y2="296.937" gradientTransform="matrix(1 0 0 -1 0 512)"><stop offset="0" stop-color="#c83660"/><stop offset=".107" stop-color="#b43360"/><stop offset=".404" stop-color="#802a5e"/><stop offset=".663" stop-color="#5a245e"/><stop offset=".87" stop-color="#43205d"/><stop offset="1" stop-color="#3a1f5d"/></linearGradient><path d="M465.9 201.4V168h-86.2l-101.8-58.8c-13.6-7.9-37.3-6.9-53 2.2L126.8 168H40.5v35.3h.1c-.4 5.4 2.6 10.5 9.1 14.2l178.9 103.3c13.6 7.9 37.3 6.9 53-2.2l171.3-98.9c9.1-5.2 13.5-12.1 13-18.3z" opacity=".5" fill="url(#SVGID_5_)"/><linearGradient id="SVGID_6_" gradientUnits="userSpaceOnUse" x1="253.325" y1="297.011" x2="466.078" y2="297.011" gradientTransform="matrix(1 0 0 -1 0 512)"><stop offset="0" stop-color="#3a1f5d"/><stop offset="1" stop-color="#3a1f5d"/></linearGradient><path d="M277.9 109.2c-6.5-3.7-15.5-5.5-24.6-5.2v222c10-.2 20.3-2.7 28.4-7.5L453 219.6c9.1-5.2 13.5-12 13-18.3v-33.4h-86.2l-101.9-58.7z" fill="url(#SVGID_6_)"/><path class="st0" d="M228.6 285.5L49.7 182.2c-13.6-7.9-11.9-21.6 3.9-30.6l171.3-98.9c15.7-9.1 39.4-10.1 53-2.2l178.9 103.3c13.6 7.9 11.9 21.6-3.9 30.6l-171.3 98.9c-15.7 9.1-39.4 10-53 2.2z"/><linearGradient id="SVGID_7_" gradientUnits="userSpaceOnUse" x1="40.556" y1="344.034" x2="465.969" y2="344.034" gradientTransform="matrix(1 0 0 -1 0 512)"><stop offset="0" stop-color="#c83660"/><stop offset=".107" stop-color="#b43360"/><stop offset=".404" stop-color="#802a5e"/><stop offset=".663" stop-color="#5a245e"/><stop offset=".87" stop-color="#43205d"/><stop offset="1" stop-color="#3a1f5d"/></linearGradient><path d="M228.6 285.5L49.7 182.2c-13.6-7.9-11.9-21.6 3.9-30.6l171.3-98.9c15.7-9.1 39.4-10.1 53-2.2l178.9 103.3c13.6 7.9 11.9 21.6-3.9 30.6l-171.3 98.9c-15.7 9.1-39.4 10-53 2.2z" opacity=".5" fill="url(#SVGID_7_)"/><path class="st4" d="M233.4 262.7L89.3 179.4c-11-6.4-9.6-17.3 3.1-24.7l138-79.7c12.6-7.4 31.8-8.1 42.8-1.7l144.1 83.2c11 6.4 9.6 17.3-3.1 24.7l-138 79.7c-12.8 7.2-31.9 8.1-42.8 1.8z"/><path class="st5" d="M92.3 165.6l138.1-79.7c12.6-7.4 31.8-8.1 42.8-1.7l144.1 83.2c2.7 1.6 4.6 3.4 5.9 5.4 3.1-5.9 1.4-12.1-5.9-16.2L273 73.3c-11-6.4-30.1-5.5-42.8 1.7l-138 79.7c-9.5 5.5-12.6 13.1-9 19.2 1.8-2.9 4.8-5.8 9.1-8.3z"/><linearGradient id="SVGID_8_" gradientUnits="userSpaceOnUse" x1="102.231" y1="222.856" x2="406.66" y2="421.839" gradientTransform="matrix(1 0 0 -1 0 512)"><stop offset="0" stop-color="#c83660"/><stop offset="1" stop-color="#c83660"/></linearGradient><path d="M452.9 199.3l-171.3 98.9c-15.7 9.1-39.4 10.1-53 2.2L49.7 197c-6.5-3.7-9.5-8.9-9.1-14.2h-.1v7.4h.1c-.4 5.4 2.6 10.5 9.1 14.2l178.9 103.3c13.6 7.9 37.3 6.9 53-2.2l171.3-98.9c9.1-5.2 13.5-12 13-18.3v-7.4c.5 6.4-3.9 13.1-13 18.4z" opacity=".8" fill="url(#SVGID_8_)"/></g></g><g id="particles"><circle class="st5" cx="448.1" cy="237" r="2.5"/><circle class="st5" cx="93.7" cy="256.8" r="5"/><circle class="st5" cx="48.2" cy="276.5" r="7.1"/><circle class="st5" cx="14.1" cy="256.8" r="2.5"/><circle class="st5" cx="61.1" cy="242.4" r="2.5"/><circle class="st5" cx="418.8" cy="255.8" r="7.1"/><circle class="st5" cx="476.1" cy="269.7" r="5"/><circle class="st5" cx="497.9" cy="245.9" r="2.5"/></g></svg>

<?xml version="1.0" encoding="utf-8"?>
<!-- Generator: Adobe Illustrator 23.0.1, SVG Export Plug-In . SVG Version: 6.00 Build 0)  -->
<svg version="1.1" xmlns="http://www.w3.org/2000/svg" xmlns:xlink="http://www.w3.org/1999/xlink" x="0px" y="0px"
	 viewBox="0 0 512 512" style="enable-background:new 0 0 512 512;" xml:space="preserve">
<style type="text/css">
	.st0{fill:#312A91;}
	.st1{opacity:0.5;fill:url(#SVGID_1_);enable-background:new    ;}
	.st2{fill:url(#SVGID_2_);}
	.st3{opacity:0.5;fill:url(#SVGID_3_);enable-background:new    ;}
	.st4{fill:#3A1F5D;}
	.st5{fill:#C83660;}
	.st6{opacity:0.8;fill:url(#SVGID_4_);enable-background:new    ;}
	.st7{fill:#FFFFFF;}
	.st8{opacity:0.5;fill:url(#SVGID_5_);enable-background:new    ;}
	.st9{fill:url(#SVGID_6_);}
	.st10{opacity:0.5;fill:url(#SVGID_7_);enable-background:new    ;}
	.st11{opacity:0.8;fill:url(#SVGID_8_);enable-background:new    ;}
</style>
<g id="bottom">
	<g id="vaccum_1_">
		<g>
			<g>
				<g>
					<path class="st0" d="M466.4,341.9v-33.4h-86.2l-101.8-58.8c-13.6-7.9-37.3-6.9-53,2.2l-98.1,56.6H41v35.3h0.1
						c-0.4,5.4,2.6,10.5,9.1,14.2l178.9,103.3c13.6,7.9,37.3,6.9,53-2.2l171.3-98.9C462.5,355,466.9,348.2,466.4,341.9z"/>
					
						<linearGradient id="SVGID_1_" gradientUnits="userSpaceOnUse" x1="-53.0273" y1="156.3995" x2="372.4413" y2="156.3995" gradientTransform="matrix(1 0 0 -1 0 512)">
						<stop  offset="0" style="stop-color:#C83660"/>
						<stop  offset="0.1066" style="stop-color:#B43360"/>
						<stop  offset="0.404" style="stop-color:#802A5E"/>
						<stop  offset="0.6627" style="stop-color:#5A245E"/>
						<stop  offset="0.87" style="stop-color:#43205D"/>
						<stop  offset="1" style="stop-color:#3A1F5D"/>
					</linearGradient>
					<path class="st1" d="M466.4,341.9v-33.4h-86.2l-101.8-58.8c-13.6-7.9-37.3-6.9-53,2.2l-98.1,56.6H41v35.3h0.1
						c-0.4,5.4,2.6,10.5,9.1,14.2l178.9,103.3c13.6,7.9,37.3,6.9,53-2.2l171.3-98.9C462.5,355,466.9,348.2,466.4,341.9z"/>
					
						<linearGradient id="SVGID_2_" gradientUnits="userSpaceOnUse" x1="253.7952" y1="156.4736" x2="466.5487" y2="156.4736" gradientTransform="matrix(1 0 0 -1 0 512)">
						<stop  offset="0" style="stop-color:#3A1F5D"/>
						<stop  offset="1" style="stop-color:#3A1F5D"/>
					</linearGradient>
					<path class="st2" d="M278.4,249.7c-6.5-3.7-15.5-5.5-24.6-5.2v222.1c10-0.2,20.3-2.7,28.4-7.5l171.3-98.9
						c9.1-5.2,13.5-12,13-18.3v-33.4h-86.2L278.4,249.7z"/>
					<path class="st0" d="M229.1,426L50.2,322.7c-13.6-7.9-11.9-21.6,3.9-30.6l171.3-98.9c15.7-9.1,39.4-10.1,53-2.2l178.9,103.3
						c13.6,7.9,11.9,21.6-3.9,30.6l-171.3,98.9C266.4,432.9,242.7,433.9,229.1,426z"/>
					
						<linearGradient id="SVGID_3_" gradientUnits="userSpaceOnUse" x1="41.0262" y1="203.4963" x2="466.4393" y2="203.4963" gradientTransform="matrix(1 0 0 -1 0 512)">
						<stop  offset="0" style="stop-color:#C83660"/>
						<stop  offset="0.1066" style="stop-color:#B43360"/>
						<stop  offset="0.404" style="stop-color:#802A5E"/>
						<stop  offset="0.6627" style="stop-color:#5A245E"/>
						<stop  offset="0.87" style="stop-color:#43205D"/>
						<stop  offset="1" style="stop-color:#3A1F5D"/>
					</linearGradient>
					<path class="st3" d="M229.1,426L50.2,322.7c-13.6-7.9-11.9-21.6,3.9-30.6l171.3-98.9c15.7-9.1,39.4-10.1,53-2.2l178.9,103.3
						c13.6,7.9,11.9,21.6-3.9,30.6l-171.3,98.9C266.4,432.9,242.7,433.9,229.1,426z"/>
					<path class="st4" d="M233.8,403.2L89.7,320c-11-6.4-9.6-17.3,3.1-24.7l138-79.7c12.6-7.4,31.8-8.1,42.8-1.7L417.7,297
						c11,6.4,9.6,17.3-3.1,24.7l-138,79.7C263.9,408.7,244.8,409.6,233.8,403.2z"/>
					<path class="st5" d="M92.7,306.1l138.1-79.7c12.6-7.4,31.8-8.1,42.8-1.7l144.1,83.2c2.7,1.6,4.6,3.4,5.9,5.4
						c3.1-5.9,1.4-12.1-5.9-16.2l-144.2-83.2c-11-6.4-30.1-5.5-42.8,1.7l-138,79.7c-9.5,5.5-12.6,13.1-9,19.2
						C85.5,311.5,88.5,308.6,92.7,306.1z"/>
					
						<linearGradient id="SVGID_4_" gradientUnits="userSpaceOnUse" x1="102.7009" y1="82.3189" x2="407.1308" y2="281.3016" gradientTransform="matrix(1 0 0 -1 0 512)">
						<stop  offset="0" style="stop-color:#C83660"/>
						<stop  offset="1" style="stop-color:#C83660"/>
					</linearGradient>
					<path class="st6" d="M453.4,339.8l-171.3,98.9c-15.7,9.1-39.4,10.1-53,2.2L50.2,337.6c-6.5-3.7-9.5-8.9-9.1-14.2H41v7.4h0.1
						c-0.4,5.4,2.6,10.5,9.1,14.2l178.9,103.3c13.6,7.9,37.3,6.9,53-2.2l171.3-98.9c9.1-5.2,13.5-12,13-18.3v-7.4
						C466.9,327.8,462.5,334.6,453.4,339.8z"/>
				</g>
			</g>
		</g>
	</g>
</g>
<g id="layers">
	<g>
		<path class="st5" d="M351.2,329.3l-72,41.5c-2.4,1.4-5.4,1.4-7.8,0l-103-59.5c-5.2-3-5.2-10.5,0-13.5l72-41.5
			c2.4-1.4,5.4-1.4,7.8,0l103,59.5C356.4,318.9,356.4,326.3,351.2,329.3z"/>
	</g>
	<path class="st7" d="M291.9,298.2l-7.5,4.3l-1-0.6l7.5-4.3L291.9,298.2z M292.1,301.5l-8.3,4.8l1,0.6l8.3-4.8L292.1,301.5z
		 M290.8,306.9l-6.5,3.8l1,0.6l6.5-3.8L290.8,306.9z M272.6,309.3l10.7-6.2l-1-0.6l-10.7,6.2L272.6,309.3z M282.8,306.9l-5.6,3.2
		l1,0.6l5.6-3.2L282.8,306.9z M258.8,317.3l12.8-7.4l-1-0.6l-12.8,7.4L258.8,317.3z M276.2,310.7l-12.7,7.3l1,0.6l12.7-7.3
		L276.2,310.7z M283.3,311.2l-7.1,4.1l1,0.6l7.1-4.1L283.3,311.2z M270.6,305.8l12.9-7.5l-1-0.6l-12.9,7.5L270.6,305.8z M287.4,295
		l-3.9,2.2l1,0.6l3.9-2.2L287.4,295z M282.6,317.8l-5.7,3.3l1,0.6l5.7-3.3L282.6,317.8z M307.9,307.8l-8.2,4.7l1,0.6l8.2-4.7
		L307.9,307.8z M304.7,305l-7.1,4.1l1,0.6l7.1-4.1L304.7,305z M292,317l-10.7,6.2l1,0.6l10.7-6.2L292,317z M281.5,328.8l5.7-3.3
		l-1-0.6l-5.7,3.3L281.5,328.8z M298.7,313.1l-5.7,3.3l1,0.6l5.7-3.3L298.7,313.1z M300.2,316.9l-12.9,7.5l1,0.6l12.9-7.5
		L300.2,316.9z M296.5,309.7l-12.9,7.5l1,0.6l12.9-7.5L296.5,309.7z M268.5,305.8l-5.7,3.3l1,0.6l5.7-3.3L268.5,305.8z M276.8,322.3
		l-1-0.6l-7.1,4.1l1,0.6L276.8,322.3z M275.2,315.9l-16.4,9.5l1,0.6l16.4-9.5L275.2,315.9z M262.5,318.6l-16.2,9.4l1,0.6l16.2-9.4
		L262.5,318.6z M258.7,326.6l-1-0.6l-3.3,1.9l1,0.6L258.7,326.6z M293.2,337.3l-16.4,9.5l1,0.6l16.4-9.5L293.2,337.3z M297.3,340.7
		l-1-0.6l-12.7,7.3l1,0.6L297.3,340.7z M253.4,328.5l-14.6,8.4l1,0.6l14.6-8.4L253.4,328.5z M266.5,352.7l1,0.6l9.3-5.4l-1-0.6
		L266.5,352.7z M271.5,355.7l12.2-7l-1-0.6l-12.2,7L271.5,355.7z M231.9,332.8l12.2-7l-1-0.6l-12.2,7L231.9,332.8z M251.3,337.1
		l-1-0.6l-6,3.5l1,0.6L251.3,337.1z M257.8,317.9l-1-0.6l-12.7,7.3l1,0.6L257.8,317.9z M235.9,335.1l10.4-6l-1-0.6l-10.4,6
		L235.9,335.1z M255.7,314.4l7.1-4.1l-1-0.6l-7.1,4.1L255.7,314.4z M227.9,330.5l9.3-5.4l-1-0.6l-9.3,5.4L227.9,330.5z M238.2,324.5
		l16.4-9.5l-1-0.6l-16.4,9.5L238.2,324.5z M271.4,333.5l-19.3,11.1l1,0.6l19.3-11.1L271.4,333.5z M313.1,309.4l-11.9,6.9l1,0.6
		l11.9-6.9L313.1,309.4z M312.2,332.1l10.7-6.2l-1-0.6l-10.7,6.2L312.2,332.1z M323.9,325.4l7.5-4.3l-1-0.6l-7.5,4.3L323.9,325.4z
		 M324.1,320.6l3.9-2.2l-1-0.6l-3.9,2.2L324.1,320.6z M274.5,336.4L256.1,347l1,0.6l18.3-10.6L274.5,336.4z M322.6,316.9l4.9-2.8
		l-1-0.6l-4.9,2.8L322.6,316.9z M288.2,335.6l-25.9,15l1,0.6l25.9-15L288.2,335.6z M275.4,358l10.4-6l-1-0.6l-10.4,6L275.4,358z
		 M286.9,351.4l16.2-9.4l-1-0.6l-16.2,9.4L286.9,351.4z M304.1,341.4l12.7-7.3l-1-0.6l-12.7,7.3L304.1,341.4z M317.8,333.5l5.6-3.2
		l-1-0.6l-5.6,3.2L317.8,333.5z M280.2,323.8l-12.8,7.4l1,0.6l12.8-7.4L280.2,323.8z M310.2,332.1l-12.8,7.4l1,0.6l12.8-7.4
		L310.2,332.1z M308.1,328.7l-5.7,3.3l1,0.6l5.7-3.3L308.1,328.7z M302.4,333.2l-1-0.6l-7.1,4.1l1,0.6L302.4,333.2z M322.1,320.6
		l-12.9,7.5l1,0.6l12.9-7.5L322.1,320.6z M313.8,320.8l-10.7,6.2l1,0.6l10.7-6.2L313.8,320.8z M288.3,328.4l-12.8,7.4l1,0.6
		l12.8-7.4L288.3,328.4z M320.6,316.9l-5.7,3.3l1,0.6l5.7-3.3L320.6,316.9z M267.7,326.4l-16.4,9.5l1,0.6l16.4-9.5L267.7,326.4z
		 M302.1,327.6l-12.8,7.4l1,0.6l12.8-7.4L302.1,327.6z M266.4,331.8l-18.2,10.5l1,0.6l18.2-10.5L266.4,331.8z M280.5,329.4l-1-0.6
		l-7.1,4.1l1,0.6L280.5,329.4z"/>
</g>
<g id="top">
	<g id="vaccum_2_">
		<g>
			<g>
				<g>
					<path class="st0" d="M465.9,201.4V168h-86.2l-101.8-58.8c-13.6-7.9-37.3-6.9-53,2.2l-98.1,56.6H40.5v35.3h0.1
						c-0.4,5.4,2.6,10.5,9.1,14.2l178.9,103.3c13.6,7.9,37.3,6.9,53-2.2l171.3-98.9C462,214.5,466.4,207.6,465.9,201.4z"/>
					
						<linearGradient id="SVGID_5_" gradientUnits="userSpaceOnUse" x1="-53.4977" y1="296.9369" x2="371.9708" y2="296.9369" gradientTransform="matrix(1 0 0 -1 0 512)">
						<stop  offset="0" style="stop-color:#C83660"/>
						<stop  offset="0.1066" style="stop-color:#B43360"/>
						<stop  offset="0.404" style="stop-color:#802A5E"/>
						<stop  offset="0.6627" style="stop-color:#5A245E"/>
						<stop  offset="0.87" style="stop-color:#43205D"/>
						<stop  offset="1" style="stop-color:#3A1F5D"/>
					</linearGradient>
					<path class="st8" d="M465.9,201.4V168h-86.2l-101.8-58.8c-13.6-7.9-37.3-6.9-53,2.2l-98.1,56.6H40.5v35.3h0.1
						c-0.4,5.4,2.6,10.5,9.1,14.2l178.9,103.3c13.6,7.9,37.3,6.9,53-2.2l171.3-98.9C462,214.5,466.4,207.6,465.9,201.4z"/>
					
						<linearGradient id="SVGID_6_" gradientUnits="userSpaceOnUse" x1="253.3247" y1="297.011" x2="466.0782" y2="297.011" gradientTransform="matrix(1 0 0 -1 0 512)">
						<stop  offset="0" style="stop-color:#3A1F5D"/>
						<stop  offset="1" style="stop-color:#3A1F5D"/>
					</linearGradient>
					<path class="st9" d="M277.9,109.2c-6.5-3.7-15.5-5.5-24.6-5.2V326c10-0.2,20.3-2.7,28.4-7.5l171.3-98.9
						c9.1-5.2,13.5-12,13-18.3v-33.4h-86.2L277.9,109.2z"/>
					<path class="st0" d="M228.6,285.5L49.7,182.2c-13.6-7.9-11.9-21.6,3.9-30.6l171.3-98.9c15.7-9.1,39.4-10.1,53-2.2l178.9,103.3
						c13.6,7.9,11.9,21.6-3.9,30.6l-171.3,98.9C265.9,292.4,242.2,293.3,228.6,285.5z"/>
					
						<linearGradient id="SVGID_7_" gradientUnits="userSpaceOnUse" x1="40.5558" y1="344.0336" x2="465.9689" y2="344.0336" gradientTransform="matrix(1 0 0 -1 0 512)">
						<stop  offset="0" style="stop-color:#C83660"/>
						<stop  offset="0.1066" style="stop-color:#B43360"/>
						<stop  offset="0.404" style="stop-color:#802A5E"/>
						<stop  offset="0.6627" style="stop-color:#5A245E"/>
						<stop  offset="0.87" style="stop-color:#43205D"/>
						<stop  offset="1" style="stop-color:#3A1F5D"/>
					</linearGradient>
					<path class="st10" d="M228.6,285.5L49.7,182.2c-13.6-7.9-11.9-21.6,3.9-30.6l171.3-98.9c15.7-9.1,39.4-10.1,53-2.2l178.9,103.3
						c13.6,7.9,11.9,21.6-3.9,30.6l-171.3,98.9C265.9,292.4,242.2,293.3,228.6,285.5z"/>
					<path class="st4" d="M233.4,262.7L89.3,179.4c-11-6.4-9.6-17.3,3.1-24.7l138-79.7c12.6-7.4,31.8-8.1,42.8-1.7l144.1,83.2
						c11,6.4,9.6,17.3-3.1,24.7l-138,79.7C263.4,268.1,244.3,269,233.4,262.7z"/>
					<path class="st5" d="M92.3,165.6l138.1-79.7c12.6-7.4,31.8-8.1,42.8-1.7l144.1,83.2c2.7,1.6,4.6,3.4,5.9,5.4
						c3.1-5.9,1.4-12.1-5.9-16.2L273,73.3c-11-6.4-30.1-5.5-42.8,1.7l-138,79.7c-9.5,5.5-12.6,13.1-9,19.2
						C85,171,88,168.1,92.3,165.6z"/>
					
						<linearGradient id="SVGID_8_" gradientUnits="userSpaceOnUse" x1="102.2305" y1="222.8562" x2="406.6603" y2="421.839" gradientTransform="matrix(1 0 0 -1 0 512)">
						<stop  offset="0" style="stop-color:#C83660"/>
						<stop  offset="1" style="stop-color:#C83660"/>
					</linearGradient>
					<path class="st11" d="M452.9,199.3l-171.3,98.9c-15.7,9.1-39.4,10.1-53,2.2L49.7,197c-6.5-3.7-9.5-8.9-9.1-14.2h-0.1v7.4h0.1
						c-0.4,5.4,2.6,10.5,9.1,14.2l178.9,103.3c13.6,7.9,37.3,6.9,53-2.2l171.3-98.9c9.1-5.2,13.5-12,13-18.3v-7.4
						C466.4,187.3,462,194,452.9,199.3z"/>
				</g>
			</g>
		</g>
	</g>
</g>
<g id="particles">
	<circle class="st5" cx="448.1" cy="237" r="2.5"/>
	<circle class="st5" cx="93.7" cy="256.8" r="5"/>
	<circle class="st5" cx="48.2" cy="276.5" r="7.1"/>
	<circle class="st5" cx="14.1" cy="256.8" r="2.5"/>
	<circle class="st5" cx="61.1" cy="242.4" r="2.5"/>
	<circle class="st5" cx="418.8" cy="255.8" r="7.1"/>
	<circle class="st5" cx="476.1" cy="269.7" r="5"/>
	<circle class="st5" cx="497.9" cy="245.9" r="2.5"/>
</g>
</svg>
